X: 1
T: WELCOME HERE AGAIN -- REEL
B: Ryan's Mammoth Collection of Fiddle Tunes
R: REEL
M: C|
L: 1/8
Z: Contributed 20000424212838 by Ivan Bradley bradleyi:peoplepc.com
K: D
vD2 (AB) AFAB | D2 (dB) AFEF | D2 (AB) AFAg |
|1 fd"4"ec dBAF :|2 fdef d2 d2 |
|: vfde(f gf).e.d | cAAA eAAA | fde(f gf).e.d | cdef d2 d2 :|
